!!!OTL: 51b. Der Hammerschmiedssohn.
!!!ODT: 1840
!!!ARE: Europa, Mitteleuropa, Deutschland, Hessen, Darmstadt
!!!SCT: E0051A
!!!TXL: @@DE
!!!YEM: Copyright 1995, estate of Helmut Schaffrath.
**kern	**text
*ICvox	*
*M4/4	*
*met(c)	*
*k[f#c#g#]	*
*A:	*
!LO:TX:a:t=Ernſt.	!
!LO:TX:a:t=Heſſen-Darmſtädtiſch. 1840.	!
{4e	Su-
=1	=1
4.a	-ſann-
8a	-chen
4a	ſprang
4a	ʒum
=2	=2
4.cc#	Thor
8b	hin-
4a	-aus,
4r	.
=3	=3
2r}	.
{2cc#	Su-
=4	=4
2b	-ſann-
2a	-chen
=5	=5
2g#	ſprang
2f#	ʒum
=6	=6
4.e	Thor
8f#	hin-
4e}	-aus,
{4d	ſie
=7	=7
4c#	ſprang
4e	in
4c#	ih-
4e	-res
=8	=8
4.cc#	Va-
8b	-ters
4a}	Haus,
{4a	ja
=9	=9
2b/	Va-
2g#	-ters
=10	=10
2a	Haus.
4r}	.
==	==
!!!AGN: erzaehlendes Volks - Lied, Sage, Mord, Ballade ?
!!!ONB: ESAC (Essen Associative Code) Database: ERK1
!!!AMT: simple quadruple
!!!AIN: vox
!!!EED: Helmut Schaffrath
!!!EEV: 1.0
!!!GTL: Sagen von Mordthaten, unschuldig Gesangeg und Hinrichtungen
!!!URL-scan: https://rosdok.uni-rostock.de/mcrviewer/recordIdentifier/rosdok_ppn745146120/iview2/phys_0242.iview2?x=-250.1417780126858&y=202.4704242227599&scale=0.5392104374602399&rotation=0&layout=singlePageLayout&logicalDiv=log_0009
!!!ENC: Anna Maria Matuszewska
!!!EEV: 2024/11/25
*-	*-
